src/actions/24/debug-run.svg

<svg viewBox="0 0 24 24" xmlns="http://www.w3.org/2000/svg">
 <defs>
  <style type="text/css">.ColorScheme-Text {
        color:#2e3440;
      }</style>
 </defs>
 <path class="ColorScheme-Text" d="m4 4v4 12h1 5v-1h-5v-11h14v5h1v-5-4h-16zm12 10v2h-2v2h2v2l4-3-4-3z" fill="currentColor"/>
</svg>

<svg xmlns="http://www.w3.org/2000/svg" viewBox="0 0 24 24">
  <defs id="defs3051">
    <style type="text/css" id="current-color-scheme">
      .ColorScheme-Text {
        color:#2e3440;
      }
      </style>
  </defs>
 <path style="fill:currentColor;fill-opacity:1;stroke:none" 
     d="M 4 4 L 4 8 L 4 20 L 5 20 L 10 20 L 10 19 L 5 19 L 5 8 L 19 8 L 19 13 L 20 13 L 20 8 L 20 4 L 4 4 z M 16 14 L 16 16 L 14 16 L 14 18 L 16 18 L 16 20 L 20 17 L 16 14 z "
     class="ColorScheme-Text"
     />
</svg>
